X:1
T:Title
%%score { 1 | 2 }
L:1/8
M:4/4
K:F
V:1 treble nm="Grand Piano"
V:2 bass 
V:1
 z4 z2[Q:1/4=90] FG | AA_A=A [Ec][EB][EA][B,EG] | [A,F]6[K:bass] [F,CF][F,CE] | %3
 [F,B,D][K:treble][DF][DB][Fd] cAGF | [EG]6 [EG][FA] | [GB][GB][GB][GB] [GB]2 [FA][CEG] | %6
 AAAA A2 AA | [B,DG][DBd][D^Fc][DGB] .[C=FA]2 .[B,EG]2 |[M:3/4] [A,F]6 |[M:1/4] [CFA][CGB] | %10
[M:4/4] [Ac][Ac][_A=B][=Ac] [Af][Ac]AF | [Ac][GB][GB][GB] [GB]2 [EG][FA] | %12
 [GB][GB][^FA][GB] [ce][ce][Bd][Bd] | [Ac][CAc][CGB][CGB] [CFA]2 CC | FFEE DDCC | %15
 B[DB][EB][CEB] [CFA]2 [CFA][CFA] | [B,DG][DBd][D^Fc][DGB] .[C=FA]2 .[B,EG]2 |[M:3/4] [A,F]6 |] %18
V:2
 z4 z2 [F,A,][F,B,F] | [F,CF][F,CF][F,=B,F][F,CF] [C,C][C,C][C,C]C, | F,6 A,,A,, | %3
 B,,[B,,B,][B,,B,][B,,B,] [F,A,F][F,CF][G,=B,D][G,B,D] | [C,C]6 [C,C][C,C] | %5
 [C,C][C,C][C,C][C,C] [C,C]2 [C,C]B,, | [F,CF][F,CF][F,CF][F,CF] [F,CF]2 [F,CF][F,CF] | %7
 B,,G,,A,,B,, .C,2 .C,2 |[M:3/4] F,6 |[M:1/4] F,F, | %10
[M:4/4] [F,F][F,F][F,F][F,F] [F,C][F,C][F,CF][F,A,] | [C,C][C,C][C,C][C,C] [C,C]2 [C,C][C,C] | %12
 [C,C][C,C][C,C][C,C] [C,C][C,C][C,C][C,C] | [C,C]D,E,C, F,2 C,C, | F,F,E,E, D,D,C,C, | %15
 [C,E,C][C,F,][C,G,]C, F,2 F,F, | B,,G,,A,,B,, .C,2 .C,2 |[M:3/4] F,6 |] %18

